(.../Documents/eagle/ulp/pcb-gcode.ulp)
(Copyright 2005 - 2009 by John Johnson)
(See readme.txt for licensing terms.)
(This file generated from the board:)
(.../Documents/eagle/HW_BOX/untitled.brd)
(Current profile is .../eagle/ulp/profiles/generic.pp  )
(This file generated 5/9/11 12:05 AM)
( Tool|       Size       |  Min Sub |  Max Sub |   Count )
( T01  0.813mm 0.0320in 0.0000in 0.0000in )
( T02  0.914mm 0.0360in 0.0000in 0.0000in )
( T03  1.000mm 0.0394in 0.0000in 0.0000in )
( T04  1.194mm 0.0470in 0.0000in 0.0000in )
G21
(Absolute Coordinates)
G90
M05
G00 Z0.0000 
G00 X0.0000 Y0.0000 
M06 T01  ; 0.8128 
G00 Z2.5400 
M03
G04 P3.000000
G00 Z2.540000
G00 X20.3200 Y54.6100 
G01 Z-2.5400 F254.00 
G01 Z2.540000
(R2.5400  P1.000000)
(G00 Z2.540000)
G00 X20.3200 Y62.2300 
G01 Z-2.540000
G01 Z2.540000
(G00 Z2.540000)
G00 X22.8600 Y54.6100 
G01 Z-2.540000
G01 Z2.540000
(G00 Z2.540000)
G00 X22.8600 Y62.2300 
G01 Z-2.540000
G01 Z2.540000
(G00 Z2.540000)
G00 X25.4000 Y54.6100 
G01 Z-2.540000
G01 Z2.540000
(G00 Z2.540000)
G00 X25.4000 Y62.2300 
G01 Z-2.540000
G01 Z2.540000
(G00 Z2.540000)
G00 X27.9400 Y54.6100 
G01 Z-2.540000
G01 Z2.540000
(G00 Z2.540000)
G00 X27.9400 Y62.2300 
G01 Z-2.540000
G01 Z2.540000
(G00 Z2.540000)
G00 X30.4800 Y54.6100 
G01 Z-2.540000
G01 Z2.540000
(G00 Z2.540000)
G00 X30.4800 Y62.2300 
G01 Z-2.540000
G01 Z2.540000
(G00 Z2.540000)
G00 X33.0200 Y54.6100 
G01 Z-2.540000
G01 Z2.540000
(G00 Z2.540000)
G00 X33.0200 Y62.2300 
G01 Z-2.540000
G01 Z2.540000
(G00 Z2.540000)
G00 X35.5600 Y54.6100 
G01 Z-2.540000
G01 Z2.540000
(G00 Z2.540000)
G00 X35.5600 Y62.2300 
G01 Z-2.540000
G01 Z2.540000
(G00 Z2.540000)
G00 X38.1000 Y54.6100 
G01 Z-2.540000
G01 Z2.540000
(G00 Z2.540000)
G00 X38.1000 Y62.2300 
G01 Z-2.540000
G01 Z2.540000
(G00 Z2.540000)
G00 X40.6400 Y54.6100 
G01 Z-2.540000
G01 Z2.540000
(G00 Z2.540000)
G00 X40.6400 Y62.2300 
G01 Z-2.540000
G01 Z2.540000
(G00 Z2.540000)
G00 X43.1800 Y54.6100 
G01 Z-2.540000
G01 Z2.540000
(G00 Z2.540000)
G00 X43.1800 Y62.2300 
G01 Z-2.540000
G01 Z2.540000
(G00 Z2.540000)
G00 X45.7200 Y54.6100 
G01 Z-2.540000
G01 Z2.540000
(G00 Z2.540000)
G00 X45.7200 Y62.2300 
G01 Z-2.540000
G01 Z2.540000
(G00 Z2.540000)
G00 X48.2600 Y54.6100 
G01 Z-2.540000
G01 Z2.540000
(G00 Z2.540000)
G00 X48.2600 Y62.2300 
G01 Z-2.540000
G01 Z2.540000
(G00 Z2.540000)
G00 X52.0700 Y58.4200 
G01 Z-2.540000
G01 Z2.540000
(G00 Z2.540000)
G00 X63.5000 Y68.5800 
G01 Z-2.540000
G01 Z2.540000
(G00 Z2.540000)
G00 X64.7700 Y58.4200 
G01 Z-2.540000
G01 Z2.540000
(G00 Z2.540000)
G00 X66.0400 Y68.5800 
G01 Z-2.540000
G01 Z2.540000
M05
G00 Z0.0000 
M06 T02  ; 0.9144 
G00 Z2.5400 
M03
G04 P3.000000
G00 Z2.540000
G00 X60.9600 Y62.2300 
G01 Z-2.5400 F254.00 
G01 Z2.540000
(R2.5400  P1.000000)
(G00 Z2.540000)
G00 X68.5800 Y62.2300 
G01 Z-2.540000
G01 Z2.540000
M05
G00 Z0.0000 
M06 T03  ; 1.0000 
G00 Z2.5400 
M03
G04 P3.000000
G00 Z2.540000
G00 X72.3900 Y64.7700 
G01 Z-2.5400 F254.00 
G01 Z2.540000
(R2.5400  P1.000000)
(G00 Z2.540000)
G00 X74.9300 Y64.7700 
G01 Z-2.540000
G01 Z2.540000
(G00 Z2.540000)
G00 X77.4700 Y43.1800 
G01 Z-2.540000
G01 Z2.540000
(G00 Z2.540000)
G00 X77.4700 Y45.7200 
G01 Z-2.540000
G01 Z2.540000
(G00 Z2.540000)
G00 X77.4700 Y48.2600 
G01 Z-2.540000
G01 Z2.540000
(G00 Z2.540000)
G00 X77.4700 Y50.8000 
G01 Z-2.540000
G01 Z2.540000
(G00 Z2.540000)
G00 X77.4700 Y53.3400 
G01 Z-2.540000
G01 Z2.540000
(G00 Z2.540000)
G00 X77.4700 Y64.7700 
G01 Z-2.540000
G01 Z2.540000
(G00 Z2.540000)
G00 X80.0100 Y64.7700 
G01 Z-2.540000
G01 Z2.540000
(G00 Z2.540000)
G00 X82.5500 Y64.7700 
G01 Z-2.540000
G01 Z2.540000
M05
G00 Z0.0000 
M06 T04  ; 1.1938 
G00 Z2.5400 
M03
G04 P3.000000
G00 Z2.540000
G00 X17.8600 Y43.1600 
G01 Z-2.5400 F254.00 
G01 Z2.540000
(R2.5400  P1.000000)
(G00 Z2.540000)
G00 X17.8600 Y74.9500 
G01 Z-2.540000
G01 Z2.540000
(G00 Z2.540000)
G00 X22.8600 Y43.1600 
G01 Z-2.540000
G01 Z2.540000
(G00 Z2.540000)
G00 X22.8600 Y74.9500 
G01 Z-2.540000
G01 Z2.540000
(G00 Z2.540000)
G00 X27.8600 Y43.1600 
G01 Z-2.540000
G01 Z2.540000
(G00 Z2.540000)
G00 X27.8600 Y74.9500 
G01 Z-2.540000
G01 Z2.540000
(G00 Z2.540000)
G00 X33.1000 Y43.1600 
G01 Z-2.540000
G01 Z2.540000
(G00 Z2.540000)
G00 X33.1000 Y74.9500 
G01 Z-2.540000
G01 Z2.540000
(G00 Z2.540000)
G00 X38.1000 Y43.1600 
G01 Z-2.540000
G01 Z2.540000
(G00 Z2.540000)
G00 X38.1000 Y74.9500 
G01 Z-2.540000
G01 Z2.540000
(G00 Z2.540000)
G00 X43.1000 Y43.1600 
G01 Z-2.540000
G01 Z2.540000
(G00 Z2.540000)
G00 X43.1000 Y74.9500 
G01 Z-2.540000
G01 Z2.540000
(G00 Z2.540000)
G00 X48.3400 Y43.1600 
G01 Z-2.540000
G01 Z2.540000
(G00 Z2.540000)
G00 X48.3400 Y74.9500 
G01 Z-2.540000
G01 Z2.540000
(G00 Z2.540000)
G00 X53.3400 Y43.1600 
G01 Z-2.540000
G01 Z2.540000
(G00 Z2.540000)
G00 X53.3400 Y74.9500 
G01 Z-2.540000
G01 Z2.540000
(G00 Z2.540000)
G00 X58.3400 Y43.1600 
G01 Z-2.540000
G01 Z2.540000
(G00 Z2.540000)
G00 X58.3400 Y74.9500 
G01 Z-2.540000
G01 Z2.540000
T01 
G00 Z12.7000 
M05
M02
